!!!!SEGMENT: pl-cz--ii-15--007_szlagorski-walenty--walc-5.krn
!!!cenid: 18xx:1157
!!!COM: Szlagórski, Walenty
!!!COM-rismID:
!!!CDT: 1801-1863/07/16
!!!CNT: Polish
!!!OTL: Walc 5
!!!PDT:
!!!AGN: Secular; Waltz
!!!SMS-siglum: PL-CZ
!!!SMS-shelfmark: II-15
!!!SMS-shelfwork: 007 W
!!!SMS-variant:
!!!SMS-altvar:
!!!NIFC-rismSourceID: 300001528
!!!NIFC-islandoraID: pl-cz:32533
!!!URL-pdf-islandora: https://repozytorium.nifc.pl/islandora/object/pl-cz%3A32533/datastream/PDF/view
!!!URL-scan:
!!!ONB-nifc: UWAGA: części: 1. Mazur (Morawski), 2. Mazur (Szlagórski), 3. Walc 1, 4. Walc 2, 5. Walc 3, 6. Walc 4, 7. Walc 5, 8. Mazur (Studziński), 9. Kotylion (Szlagórski), 10. Gallop (Szlagórski), 11. Mazur (Smacierzyński). UWAGA: dalsza część partii Basso z tyłu okładki
!!!AIN: 2 clars 1 cor 2 empty 1 flt 2 violn
!!!key:
**kern	**kern	**kern	**kern	**kern	**kern	**kern	**kern
*group3	*group3	*group3	*group2	*group2	*group1	*group1	*group1
*part8	*part7	*part6	*part5	*part4	*part3	*part2	*part1
*staff8	*staff7	*staff6	*staff5	*staff4	*staff3	*staff2	*staff1
*Iempty	*Ivioln	*Ivioln	*Iempty	*Icor	*Iclars	*Iclars	*Iflt
*I"Baſso	*I"Violino 2do	*I"Violino 1mo	*I"Clarino in G.	*I"Corno 1mo in D.	*I"Clarinetto 2do in C	*I"Clarinetto 1mo in C.	*I"Flauto Primo
*I'[Cb]	*I'[Vl 2]	*I'[Vl 2]	*I'[Clno in G]	*I'[Cor 1 in D]	*I'[Cl 2 in C]	*I'[Cl 1 in C]	*I'[Fl 1]
*clefF4	*clefG2	*clefG2	*clefG2	*clefG2	*clefG2	*clefG2	*clefG2
*	*	*	*ITrd3c5	*ITrd-1c-2	*	*	*
*k[f#]	*k[f#]	*k[f#]	*k[f#]	*k[f#]	*k[f#]	*k[f#]	*k[f#]
*G:	*G:	*G:	*	*G:	*G:	*G:	*G:
*M3/4	*M3/4	*M3/4	*M3/4	*M3/4	*M3/4	*M3/4	*M3/4
*>[A,A,B,B]	*>[A,A,B,B]	*>[A,A,B,B]	*>[A,A,B,B]	*>[A,A,B,B]	*>[A,A,B,B]	*>[A,A,B,B]	*>[A,A,B,B]
=1	=1	=1	=1	=1	=1	=1	=1
*>A	*>A	*>A	*>A	*>A	*>A	*>A	*>A
!	!	!	!LO:TX:a:i:t=in G. Solo	!	!	!	!
!LO:TX:B:t=Ner 5	!LO:TX:B:t=Nro 5	!LO:TX:B:t=Ner 5	!LO:TX:B:t=Ner 5	!LO:TX:B:t=Ner 5	!LO:TX:B:t=Ner 5	!LO:TX:B:t=Ner 5	!LO:TX:a:B:t=Ner 5
4G\	4r	4r	2D/	2.r	2.r	2.r	2.r
4r	4B/ 4d	4g/	.	.	.	.	.
4r	4B/ 4d	4g/	4G/	.	.	.	.
=2	=2	=2	=2	=2	=2	=2	=2
*	*rep	*	*	*	*	*	*
!	!	!	!	!LO:TX:a:t=16	!LO:TX:a:t=8	!LO:TX:a:t=8	!LO:TX:a:t=8
4G\	4r	4r	2D/	2.r	2.r	2.r	2.r
4r	4B/ 4d	4g/	.	.	.	.	.
4r	4B/ 4d	4g/	4G/	.	.	.	.
*	*Xrep	*	*	*	*	*	*
=3	=3	=3	=3	=3	=3	=3	=3
*	*rep	*	*	*	*	*	*
4G\	4r	4r	4B/	2.r	2.r	2.r	2.r
4r	4B/ 4d	4g/	4G/	.	.	.	.
4r	4B/ 4d	4g/	4B/	.	.	.	.
*	*Xrep	*	*	*	*	*	*
=4	=4	=4	=4	=4	=4	=4	=4
*	*rep	*rep	*	*	*	*	*
4G\	4r	4r	2.d/	2.r	2.r	2.r	2.r
4r	4B/ 4d	4g/	.	.	.	.	.
4r	4B/ 4d	4g/	.	.	.	.	.
*	*Xrep	*Xrep	*	*	*	*	*
=5	=5	=5	=5	=5	=5	=5	=5
*	*rep	*rep	*	*	*	*	*
4G\	4r	4r	(>4d\	2.r	2.r	2.r	2.r
4r	4B/ 4d	4g/	4g\)	.	.	.	.
4r	4B/ 4d	4g/	4B'>/	.	.	.	.
*	*Xrep	*Xrep	*	*	*	*	*
=6	=6	=6	=6	=6	=6	=6	=6
*	*rep	*rep	*	*	*	*	*
4G\	4r	4r	(>4d\	2.r	2.r	2.r	2.r
4r	4B/ 4d	4g/	4g\)	.	.	.	.
4r	4B/ 4d	4g/	4B'>/	.	.	.	.
*	*Xrep	*Xrep	*	*	*	*	*
=7	=7	=7	=7	=7	=7	=7	=7
*	*rep	*rep	*	*	*	*	*
4G\	4r	4r	4d/	2.r	2.r	2.r	2.r
4r	4B/ 4d	4g/	8d/L	.	.	.	.
.	.	.	8d/J	.	.	.	.
4r	4B/ 4d	4g/	4d/	.	.	.	.
*	*Xrep	*Xrep	*	*	*	*	*
!	!	!LO:LB:g=original	!	!	!	!	!
=8	=8	=8	=8	=8	=8	=8	=8
*	*rep	*	*2\right	*	*	*	*
4G\	4r	4r	2g\	2.r	2.r	2.r	2.r
4r	4B/ 4d	4g/	.	.	.	.	.
4r	4B/ 4d	4g/	4r	.	.	.	.
*	*Xrep	*	*	*	*	*	*
!LO:LB:g=original	!LO:LB:g=original	!	!	!	!	!	!
=9	=9	=9	=9	=9	=9	=9	=9
*	*	*	*	*	*	*2\right	*2\right
4D\	4r	4r	2e/	2.r	2f#/	2ee\	2eee\
4r	4c/ 4d	4A/ 4f#	.	.	.	.	.
4r	4c/ 4d	4A/ 4f#	4d/	.	4f#/	4dd\	4ddd\
!	!	!	!LO:LB:g=original	!	!	!	!
=10	=10	=10	=10	=10	=10	=10	=10
4D\	4r	4r	2d/	2.r	2f#/	2a/	2aa\
4r	4c/ 4d	4A/ 4f#	.	.	.	.	.
4r	4c/ 4d	4A/ 4f#	4r	.	4r	4cc\	4ccc\
=11	=11	=11	=11	=11	=11	=11	=11
4G\	4r	4r	2B/	2.r	2g/	2b\	2bb\
4r	4B/ 4d	4g/	.	.	.	.	.
4r	4B/ 4d	4g/	8g\	.	4b/	8gg\	4ggg\
.	.	.	8r	.	.	8r	.
=12	=12	=12	=12	=12	=12	=12	=12
*	*rep	*	*	*	*2\right	*	*
4G\	4r	4r	4d/	2.r	2.b\	2.dd\	2.ddd\
4r	4B/ 4d	4g/	8d/L	.	.	.	.
.	.	.	8d/J	.	.	.	.
4r	4B/ 4d	4g/	4d/	.	.	.	.
*	*Xrep	*	*	*	*	*	*
=13	=13	=13	=13	=13	=13	=13	=13
4D\	4r	4r	2e/	2.r	2f#/	2ee\	2eee\
4r	4c/ 4d	4A/ 4f#	.	.	.	.	.
4r	4c/ 4d	4A/ 4f#	8d/	.	4f#/	8dd\	4ddd\
.	.	.	8r	.	.	8r	.
=14	=14	=14	=14	=14	=14	=14	=14
*	*rep	*	*	*	*	*	*
4D\	4r	4r	2D/	2.r	2.d/	2d/	2dd\
4r	4c/ 4d	4A/ 4f#	.	.	.	.	.
4r	4c/ 4d	4A/ 4f#	8B/	.	.	8b\	4bb\
.	.	.	8r	.	.	8r	.
*	*Xrep	*	*	*	*	*	*
=15	=15	=15	=15	=15	=15	=15	=15
4G\	4r	4r	4G/	2.r	2.B/	2.g/	2.gg\
4r	4B/ 4d	4g/	8G/L	.	.	.	.
.	.	.	8G/J	.	.	.	.
4r	4B/ 4d	4g/	4B/	.	.	.	.
!	!	!	!	!	!	!	!LO:LB:g=original
=16	=16	=16	=16	=16	=16	=16	=16
4G\	2B/ 2d	2g/	4G/	2.r	4B/	4g/	4ggg\
4r	.	.	4r	.	4r	4r	4r
4r	4r	4r	4r	.	4r	4r	4r
!	!	!LO:LB:g=original	!	!	!LO:LB:g=original	!	!
=17:|:	=17:|:	=17:|:	=17:|:	=17:|:	=17:|:	=17:|:	=17:|:
*>B	*>B	*>B	*>B	*>B	*>B	*>B	*>B
*	*	*2\right	*	*	*	*	*
4D\	4r	2.dd\	4D/	2.r	4r	4r	2.r
4r	4c/ 4f#	.	8D/L	.	4f#/	4a/	.
.	.	.	8D/J	.	.	.	.
4r	4c/ 4f#	.	4D/	.	4f#/	4a/	.
!	!LO:LB:g=original	!	!	!	!	!	!
=18	=18	=18	=18	=18	=18	=18	=18
!	!	!	!	!LO:TX:a:t=16	!	!	!LO:TX:a:t=4
4D\	4r	4ccc\	4d/	2.r	4r	4r	2.r
4r	4c/ 4f#	4bb\	4r	.	4f#/	4a/	.
4r	4c/ 4f#	4aa\	4r	.	4f#/	4a/	.
!LO:LB:g=original	!	!	!	!	!	!LO:LB:g=original	!
=19	=19	=19	=19	=19	=19	=19	=19
4G\	4r	2bb\	4G/	2.r	4r	4r	2.r
4r	4B/ 4g	.	8G/L	.	4d/	4g/	.
.	.	.	8G/J	.	.	.	.
4r	4B/ 4g	4gg\	4G/	.	4d/	4g/	.
!	!	!	!LO:LB:g=original	!	!	!	!
=20	=20	=20	=20	=20	=20	=20	=20
*	*rep	*	*	*	*	*	*
4G\	4r	2dd\	4G/	2.r	4r	4r	2.r
4r	4B/ 4g	.	4r	.	4d/	4g/	.
4r	4B/ 4g	4b\	4r	.	4d/	4g/	.
*	*Xrep	*	*	*	*	*	*
=21	=21	=21	=21	=21	=21	=21	=21
4C/	4r	2ee\	2.r	2.r	2a/	2ee\	2eee\
4r	4e/ 4a	.	.	.	.	.	.
4r	4e/ 4a	8a/	.	.	4r	8a/	8aa\
.	.	8r	.	.	.	8r	8r
=22	=22	=22	=22	=22	=22	=22	=22
!	!	!	!LO:TX:a:t=3	!	!	!	!
4D\	4r	2dd\	2.r	2.r	2f#/	2dd\	2ddd\
4r	4c/ 4f#	.	.	.	.	.	.
4r	4c/ 4f#	8d/	.	.	8d/	8d/	8dd\
.	.	8r	.	.	8r	8r	8r
=23	=23	=23	=23	=23	=23	=23	=23
4G\	4r	8g/L	2.r	2.r	2d/	2g/	8gg\L
.	.	8b/	.	.	.	.	8bb\
4r	4B/ 4d	8a/	.	.	.	.	8aa\
.	.	8g/	.	.	.	.	8gg\
4r	4B/ 4d	8f#/	.	.	4d/	4g/	8ff#\
.	.	8e/J	.	.	.	.	8ee\J
=24	=24	=24	=24	=24	=24	=24	=24
4G\	4r	4d/	4r	2.r	4d/	2g/	4dd\
4r	4B/ 4g	4r	8d/L	.	4r	.	4r
.	.	.	8d/J	.	.	.	.
4r	4B/ 4g	4r	4d/	.	4r	4r	4r
!	!	!LO:LB:g=original	!	!	!	!	!
=25	=25	=25	=25	=25	=25	=25	=25
4D\	4r	4r	2e/	2.r	2f#/	2ee\	2.r
4r	4c/ 4d	4A/ 4f#	.	.	.	.	.
4r	4c/ 4d	4A/ 4f#	4d/	.	4f#/	4dd\	.
=26	=26	=26	=26	=26	=26	=26	=26
*	*rep	*rep	*	*	*	*	*
!	!	!	!	!	!	!	!LO:TX:a:t=4
4D\	4r	4r	2d/	2.r	2f#/	2a/	2.r
4r	4c/ 4d	4A/ 4f#	.	.	.	.	.
4r	4c/ 4d	4A/ 4f#	4r	.	4r	4cc\	.
*	*Xrep	*Xrep	*	*	*	*	*
!	!LO:LB:g=original	!	!	!	!	!	!
=27	=27	=27	=27	=27	=27	=27	=27
4G\	4r	4r	(>2B/	2.r	2g/	2b\	2.r
4r	4B/ 4d	4g/	.	.	.	.	.
4r	4B/ 4d	4g/	8g\)	.	4r	8gg\	.
.	.	.	8r	.	.	8r	.
!LO:LB:g=original	!	!	!	!	!LO:LB:g=original	!	!
=28	=28	=28	=28	=28	=28	=28	=28
*	*rep	*rep	*	*	*	*	*
4G\	4r	4r	4d/	2.r	2.b\	2.dd\	2.r
4r	4B/ 4d	4g/	8d/L	.	.	.	.
.	.	.	8d/J	.	.	.	.
4r	4B/ 4d	4g/	4d/	.	.	.	.
*	*Xrep	*Xrep	*	*	*	*	*
=29	=29	=29	=29	=29	=29	=29	=29
4D\	4r	4r	2e/	2.r	2f#/	2ee\	(>2eee\
4r	4c/ 4d	4A/ 4f#	.	.	.	.	.
!	!	!	!	!	!	!	!LO:TX:t=P:problem=brak ostatniej wartości w takcie
4r	4c/ 4d	4A/ 4f#	4d/	.	4r	8dd\	8ddd\)
.	.	.	.	.	.	8r	8ryy
!	!	!	!	!	!	!	!LO:LB:g=original
=30	=30	=30	=30	=30	=30	=30	=30
*	*rep	*rep	*	*	*	*	*
4D\	4r	4r	2D/	2.r	2d/	2d/	(>2dd\
4r	4c/ 4d	4A/ 4f#	.	.	.	.	.
4r	4c/ 4d	4A/ 4f#	4B/	.	4r	8b/	8bb\)
.	.	.	.	.	.	8r	8r
*	*Xrep	*Xrep	*	*	*	*	*
=31	=31	=31	=31	=31	=31	=31	=31
4G\	4r	4r	4G/	2.r	2.B/	2.g/	2.gg\
4r	4B/ 4d	4g/	8G/L	.	.	.	.
.	.	.	8G/J	.	.	.	.
4r	4B/ 4d	4g/	4B/	.	.	.	.
=32	=32	=32	=32	=32	=32	=32	=32
*2\right	*	*	*	*	*	*	*
2G\	2B/ 2d	2g/	2G/	2.r	4B/	4g/	4ggg\
.	.	.	.	.	4r	4r	4r
4r	4r	4r	4r	.	4r	4r	4r
=:|!	=:|!	=:|!	=:|!	=:|!	=:|!	=:|!	=:|!
*-	*-	*-	*-	*-	*-	*-	*-
!!!system-decoration: [(g1)][(g2)][(g3)]
!!!RDF**kern: > = above
!!!RDF**kern: < = below
!!!ENC: Solarz Mateusz
!!!END: 2020-11-06
!!!EED: Jędrzej Mróz
!!!ESR: 2021-11-02
